img/waves.svg

<svg height="233" viewBox="0 0 352 233" width="352" xmlns="http://www.w3.org/2000/svg" xmlns:xlink="http://www.w3.org/1999/xlink"><mask id="a" fill="#fff"><path d="m0 0h352v237h-352z" fill="#fff" fill-rule="evenodd"/></mask><g fill="none" fill-rule="evenodd" mask="url(#a)" opacity=".4" stroke="#fe6153" transform="translate(0 -4)"><g transform="translate(0 5)"><path d="m0 0c28.799 0 28.799 16 57.597 16 28.8 0 28.8-16 57.6-16 28.799 0 28.799 16 57.598 16s28.799-16 57.599-16c28.799 0 28.799 16 57.598 16s28.799-16 57.598-16c28.8 0 28.8 16 57.599 16s28.799-16 57.599-16c28.799 0 28.799 16 57.599 16s28.8-16 57.601-16c28.797 0 28.797 16 57.595 16 28.799 0 28.799-16 57.598-16 28.798 0 28.798 16 57.596 16s28.798-16 57.597-16 28.799 16 57.598 16c28.801 0 28.801-16 57.602-16s28.801 16 57.603 16c28.8 0 28.8-16 57.601-16s28.801 16 57.603 16c28.801 0 28.801-16 57.602-16 28.8 0 28.8 16 57.601 16s28.801-16 57.602-16c28.803 0 28.803 16 57.604 16 28.804 0 28.804-16 57.606-16 28.804 0 28.804 16 57.607 16"/><path d="m0 27c28.799 0 28.799 16 57.597 16 28.8 0 28.8-16 57.6-16 28.799 0 28.799 16 57.598 16s28.799-16 57.599-16c28.799 0 28.799 16 57.598 16s28.799-16 57.598-16c28.8 0 28.8 16 57.599 16s28.799-16 57.599-16c28.799 0 28.799 16 57.599 16s28.8-16 57.601-16c28.797 0 28.797 16 57.595 16 28.799 0 28.799-16 57.598-16 28.798 0 28.798 16 57.596 16s28.798-16 57.597-16 28.799 16 57.598 16c28.801 0 28.801-16 57.602-16s28.801 16 57.603 16c28.8 0 28.8-16 57.601-16s28.801 16 57.603 16c28.801 0 28.801-16 57.602-16 28.8 0 28.8 16 57.601 16s28.801-16 57.602-16c28.803 0 28.803 16 57.604 16 28.804 0 28.804-16 57.606-16 28.804 0 28.804 16 57.607 16"/><path d="m0 54c28.799 0 28.799 16 57.597 16 28.8 0 28.8-16 57.6-16 28.799 0 28.799 16 57.598 16s28.799-16 57.599-16c28.799 0 28.799 16 57.598 16s28.799-16 57.598-16c28.8 0 28.8 16 57.599 16s28.799-16 57.599-16c28.799 0 28.799 16 57.599 16s28.8-16 57.601-16c28.797 0 28.797 16 57.595 16 28.799 0 28.799-16 57.598-16 28.798 0 28.798 16 57.596 16s28.798-16 57.597-16 28.799 16 57.598 16c28.801 0 28.801-16 57.602-16s28.801 16 57.603 16c28.8 0 28.8-16 57.601-16s28.801 16 57.603 16c28.801 0 28.801-16 57.602-16 28.8 0 28.8 16 57.601 16s28.801-16 57.602-16c28.803 0 28.803 16 57.604 16 28.804 0 28.804-16 57.606-16 28.804 0 28.804 16 57.607 16"/><path d="m0 81c28.799 0 28.799 16 57.597 16 28.8 0 28.8-16 57.6-16 28.799 0 28.799 16 57.598 16s28.799-16 57.599-16c28.799 0 28.799 16 57.598 16s28.799-16 57.598-16c28.8 0 28.8 16 57.599 16s28.799-16 57.599-16c28.799 0 28.799 16 57.599 16s28.8-16 57.601-16c28.797 0 28.797 16 57.595 16 28.799 0 28.799-16 57.598-16 28.798 0 28.798 16 57.596 16s28.798-16 57.597-16 28.799 16 57.598 16c28.801 0 28.801-16 57.602-16s28.801 16 57.603 16c28.8 0 28.8-16 57.601-16s28.801 16 57.603 16c28.801 0 28.801-16 57.602-16 28.8 0 28.8 16 57.601 16s28.801-16 57.602-16c28.803 0 28.803 16 57.604 16 28.804 0 28.804-16 57.606-16 28.804 0 28.804 16 57.607 16"/><path d="m0 108c28.799 0 28.799 16 57.597 16 28.8 0 28.8-16 57.6-16 28.799 0 28.799 16 57.598 16s28.799-16 57.599-16c28.799 0 28.799 16 57.598 16s28.799-16 57.598-16c28.8 0 28.8 16 57.599 16s28.799-16 57.599-16c28.799 0 28.799 16 57.599 16s28.8-16 57.601-16c28.797 0 28.797 16 57.595 16 28.799 0 28.799-16 57.598-16 28.798 0 28.798 16 57.596 16s28.798-16 57.597-16 28.799 16 57.598 16c28.801 0 28.801-16 57.602-16s28.801 16 57.603 16c28.8 0 28.8-16 57.601-16s28.801 16 57.603 16c28.801 0 28.801-16 57.602-16 28.8 0 28.8 16 57.601 16s28.801-16 57.602-16c28.803 0 28.803 16 57.604 16 28.804 0 28.804-16 57.606-16 28.804 0 28.804 16 57.607 16"/><path d="m0 135c28.799 0 28.799 16 57.597 16 28.8 0 28.8-16 57.6-16 28.799 0 28.799 16 57.598 16s28.799-16 57.599-16c28.799 0 28.799 16 57.598 16s28.799-16 57.598-16c28.8 0 28.8 16 57.599 16s28.799-16 57.599-16c28.799 0 28.799 16 57.599 16s28.8-16 57.601-16c28.797 0 28.797 16 57.595 16 28.799 0 28.799-16 57.598-16 28.798 0 28.798 16 57.596 16s28.798-16 57.597-16 28.799 16 57.598 16c28.801 0 28.801-16 57.602-16s28.801 16 57.603 16c28.8 0 28.8-16 57.601-16s28.801 16 57.603 16c28.801 0 28.801-16 57.602-16 28.8 0 28.8 16 57.601 16s28.801-16 57.602-16c28.803 0 28.803 16 57.604 16 28.804 0 28.804-16 57.606-16 28.804 0 28.804 16 57.607 16"/><path d="m0 162c28.799 0 28.799 16 57.597 16 28.8 0 28.8-16 57.6-16 28.799 0 28.799 16 57.598 16s28.799-16 57.599-16c28.799 0 28.799 16 57.598 16s28.799-16 57.598-16c28.8 0 28.8 16 57.599 16s28.799-16 57.599-16c28.799 0 28.799 16 57.599 16s28.8-16 57.601-16c28.797 0 28.797 16 57.595 16 28.799 0 28.799-16 57.598-16 28.798 0 28.798 16 57.596 16s28.798-16 57.597-16 28.799 16 57.598 16c28.801 0 28.801-16 57.602-16s28.801 16 57.603 16c28.8 0 28.8-16 57.601-16s28.801 16 57.603 16c28.801 0 28.801-16 57.602-16 28.8 0 28.8 16 57.601 16s28.801-16 57.602-16c28.803 0 28.803 16 57.604 16 28.804 0 28.804-16 57.606-16 28.804 0 28.804 16 57.607 16"/><path d="m0 189c28.799 0 28.799 16 57.597 16 28.8 0 28.8-16 57.6-16 28.799 0 28.799 16 57.598 16s28.799-16 57.599-16c28.799 0 28.799 16 57.598 16s28.799-16 57.598-16c28.8 0 28.8 16 57.599 16s28.799-16 57.599-16c28.799 0 28.799 16 57.599 16s28.8-16 57.601-16c28.797 0 28.797 16 57.595 16 28.799 0 28.799-16 57.598-16 28.798 0 28.798 16 57.596 16s28.798-16 57.597-16 28.799 16 57.598 16c28.801 0 28.801-16 57.602-16s28.801 16 57.603 16c28.8 0 28.8-16 57.601-16s28.801 16 57.603 16c28.801 0 28.801-16 57.602-16 28.8 0 28.8 16 57.601 16s28.801-16 57.602-16c28.803 0 28.803 16 57.604 16 28.804 0 28.804-16 57.606-16 28.804 0 28.804 16 57.607 16"/><path d="m0 216c28.799 0 28.799 16 57.597 16 28.8 0 28.8-16 57.6-16 28.799 0 28.799 16 57.598 16s28.799-16 57.599-16c28.799 0 28.799 16 57.598 16s28.799-16 57.598-16c28.8 0 28.8 16 57.599 16s28.799-16 57.599-16c28.799 0 28.799 16 57.599 16s28.8-16 57.601-16c28.797 0 28.797 16 57.595 16 28.799 0 28.799-16 57.598-16 28.798 0 28.798 16 57.596 16s28.798-16 57.597-16 28.799 16 57.598 16c28.801 0 28.801-16 57.602-16s28.801 16 57.603 16c28.8 0 28.8-16 57.601-16s28.801 16 57.603 16c28.801 0 28.801-16 57.602-16 28.8 0 28.8 16 57.601 16s28.801-16 57.602-16c28.803 0 28.803 16 57.604 16 28.804 0 28.804-16 57.606-16 28.804 0 28.804 16 57.607 16"/></g></g></svg>

<?xml version="1.0" encoding="UTF-8"?>
<svg width="352px" height="233px" viewBox="0 0 352 233" version="1.1" xmlns="http://www.w3.org/2000/svg" xmlns:xlink="http://www.w3.org/1999/xlink">
    <title>Group 3 Copy</title>
    <defs>
        <rect id="path-1" x="0" y="0" width="352" height="237"></rect>
    </defs>
    <g id="Page-1" stroke="none" stroke-width="1" fill="none" fill-rule="evenodd">
        <g id="TIMELINE-S_ANIMAÇÃO" transform="translate(-680.000000, -538.000000)">
            <g id="Group-3-Copy" transform="translate(680.000000, 534.000000)">
                <mask id="mask-2" fill="white">
                    <use xlink:href="#path-1"></use>
                </mask>
                <g id="Mask"></g>
                <g mask="url(#mask-2)" id="Path" opacity="0.4" stroke="#FE6153">
                    <g transform="translate(0.000000, 5.000000)">
                        <path d="M3.41060513e-13,0 C28.799,0 28.799,16 57.597,16 C86.397,16 86.397,0 115.197,0 C143.996,0 143.996,16 172.795,16 C201.594,16 201.594,0 230.394,0 C259.193,0 259.193,16 287.992,16 C316.791,16 316.791,0 345.59,0 C374.39,0 374.39,16 403.189,16 C431.988,16 431.988,0 460.788,0 C489.587,0 489.587,16 518.387,16 C547.187,16 547.187,0 575.988,0 C604.785,0 604.785,16 633.583,16 C662.382,16 662.382,0 691.181,0 C719.979,0 719.979,16 748.777,16 C777.575,16 777.575,0 806.374,0 C835.173,0 835.173,16 863.972,16 C892.773,16 892.773,0 921.574,0 C950.375,0 950.375,16 979.177,16 C1007.977,16 1007.977,0 1036.778,0 C1065.579,0 1065.579,16 1094.381,16 C1123.182,16 1123.182,0 1151.983,0 C1180.783,0 1180.783,16 1209.584,16 C1238.385,16 1238.385,0 1267.186,0 C1295.989,0 1295.989,16 1324.79,16 C1353.594,16 1353.594,0 1382.396,0 C1411.2,0 1411.2,16 1440.003,16"></path>
                        <path d="M3.41060513e-13,27 C28.799,27 28.799,43 57.597,43 C86.397,43 86.397,27 115.197,27 C143.996,27 143.996,43 172.795,43 C201.594,43 201.594,27 230.394,27 C259.193,27 259.193,43 287.992,43 C316.791,43 316.791,27 345.59,27 C374.39,27 374.39,43 403.189,43 C431.988,43 431.988,27 460.788,27 C489.587,27 489.587,43 518.387,43 C547.187,43 547.187,27 575.988,27 C604.785,27 604.785,43 633.583,43 C662.382,43 662.382,27 691.181,27 C719.979,27 719.979,43 748.777,43 C777.575,43 777.575,27 806.374,27 C835.173,27 835.173,43 863.972,43 C892.773,43 892.773,27 921.574,27 C950.375,27 950.375,43 979.177,43 C1007.977,43 1007.977,27 1036.778,27 C1065.579,27 1065.579,43 1094.381,43 C1123.182,43 1123.182,27 1151.983,27 C1180.783,27 1180.783,43 1209.584,43 C1238.385,43 1238.385,27 1267.186,27 C1295.989,27 1295.989,43 1324.79,43 C1353.594,43 1353.594,27 1382.396,27 C1411.2,27 1411.2,43 1440.003,43"></path>
                        <path d="M3.41060513e-13,54 C28.799,54 28.799,70 57.597,70 C86.397,70 86.397,54 115.197,54 C143.996,54 143.996,70 172.795,70 C201.594,70 201.594,54 230.394,54 C259.193,54 259.193,70 287.992,70 C316.791,70 316.791,54 345.59,54 C374.39,54 374.39,70 403.189,70 C431.988,70 431.988,54 460.788,54 C489.587,54 489.587,70 518.387,70 C547.187,70 547.187,54 575.988,54 C604.785,54 604.785,70 633.583,70 C662.382,70 662.382,54 691.181,54 C719.979,54 719.979,70 748.777,70 C777.575,70 777.575,54 806.374,54 C835.173,54 835.173,70 863.972,70 C892.773,70 892.773,54 921.574,54 C950.375,54 950.375,70 979.177,70 C1007.977,70 1007.977,54 1036.778,54 C1065.579,54 1065.579,70 1094.381,70 C1123.182,70 1123.182,54 1151.983,54 C1180.783,54 1180.783,70 1209.584,70 C1238.385,70 1238.385,54 1267.186,54 C1295.989,54 1295.989,70 1324.79,70 C1353.594,70 1353.594,54 1382.396,54 C1411.2,54 1411.2,70 1440.003,70"></path>
                        <path d="M3.41060513e-13,81 C28.799,81 28.799,97 57.597,97 C86.397,97 86.397,81 115.197,81 C143.996,81 143.996,97 172.795,97 C201.594,97 201.594,81 230.394,81 C259.193,81 259.193,97 287.992,97 C316.791,97 316.791,81 345.59,81 C374.39,81 374.39,97 403.189,97 C431.988,97 431.988,81 460.788,81 C489.587,81 489.587,97 518.387,97 C547.187,97 547.187,81 575.988,81 C604.785,81 604.785,97 633.583,97 C662.382,97 662.382,81 691.181,81 C719.979,81 719.979,97 748.777,97 C777.575,97 777.575,81 806.374,81 C835.173,81 835.173,97 863.972,97 C892.773,97 892.773,81 921.574,81 C950.375,81 950.375,97 979.177,97 C1007.977,97 1007.977,81 1036.778,81 C1065.579,81 1065.579,97 1094.381,97 C1123.182,97 1123.182,81 1151.983,81 C1180.783,81 1180.783,97 1209.584,97 C1238.385,97 1238.385,81 1267.186,81 C1295.989,81 1295.989,97 1324.79,97 C1353.594,97 1353.594,81 1382.396,81 C1411.2,81 1411.2,97 1440.003,97"></path>
                        <path d="M3.41060513e-13,108 C28.799,108 28.799,124 57.597,124 C86.397,124 86.397,108 115.197,108 C143.996,108 143.996,124 172.795,124 C201.594,124 201.594,108 230.394,108 C259.193,108 259.193,124 287.992,124 C316.791,124 316.791,108 345.59,108 C374.39,108 374.39,124 403.189,124 C431.988,124 431.988,108 460.788,108 C489.587,108 489.587,124 518.387,124 C547.187,124 547.187,108 575.988,108 C604.785,108 604.785,124 633.583,124 C662.382,124 662.382,108 691.181,108 C719.979,108 719.979,124 748.777,124 C777.575,124 777.575,108 806.374,108 C835.173,108 835.173,124 863.972,124 C892.773,124 892.773,108 921.574,108 C950.375,108 950.375,124 979.177,124 C1007.977,124 1007.977,108 1036.778,108 C1065.579,108 1065.579,124 1094.381,124 C1123.182,124 1123.182,108 1151.983,108 C1180.783,108 1180.783,124 1209.584,124 C1238.385,124 1238.385,108 1267.186,108 C1295.989,108 1295.989,124 1324.79,124 C1353.594,124 1353.594,108 1382.396,108 C1411.2,108 1411.2,124 1440.003,124"></path>
                        <path d="M3.41060513e-13,135 C28.799,135 28.799,151 57.597,151 C86.397,151 86.397,135 115.197,135 C143.996,135 143.996,151 172.795,151 C201.594,151 201.594,135 230.394,135 C259.193,135 259.193,151 287.992,151 C316.791,151 316.791,135 345.59,135 C374.39,135 374.39,151 403.189,151 C431.988,151 431.988,135 460.788,135 C489.587,135 489.587,151 518.387,151 C547.187,151 547.187,135 575.988,135 C604.785,135 604.785,151 633.583,151 C662.382,151 662.382,135 691.181,135 C719.979,135 719.979,151 748.777,151 C777.575,151 777.575,135 806.374,135 C835.173,135 835.173,151 863.972,151 C892.773,151 892.773,135 921.574,135 C950.375,135 950.375,151 979.177,151 C1007.977,151 1007.977,135 1036.778,135 C1065.579,135 1065.579,151 1094.381,151 C1123.182,151 1123.182,135 1151.983,135 C1180.783,135 1180.783,151 1209.584,151 C1238.385,151 1238.385,135 1267.186,135 C1295.989,135 1295.989,151 1324.79,151 C1353.594,151 1353.594,135 1382.396,135 C1411.2,135 1411.2,151 1440.003,151"></path>
                        <path d="M3.41060513e-13,162 C28.799,162 28.799,178 57.597,178 C86.397,178 86.397,162 115.197,162 C143.996,162 143.996,178 172.795,178 C201.594,178 201.594,162 230.394,162 C259.193,162 259.193,178 287.992,178 C316.791,178 316.791,162 345.59,162 C374.39,162 374.39,178 403.189,178 C431.988,178 431.988,162 460.788,162 C489.587,162 489.587,178 518.387,178 C547.187,178 547.187,162 575.988,162 C604.785,162 604.785,178 633.583,178 C662.382,178 662.382,162 691.181,162 C719.979,162 719.979,178 748.777,178 C777.575,178 777.575,162 806.374,162 C835.173,162 835.173,178 863.972,178 C892.773,178 892.773,162 921.574,162 C950.375,162 950.375,178 979.177,178 C1007.977,178 1007.977,162 1036.778,162 C1065.579,162 1065.579,178 1094.381,178 C1123.182,178 1123.182,162 1151.983,162 C1180.783,162 1180.783,178 1209.584,178 C1238.385,178 1238.385,162 1267.186,162 C1295.989,162 1295.989,178 1324.79,178 C1353.594,178 1353.594,162 1382.396,162 C1411.2,162 1411.2,178 1440.003,178"></path>
                        <path d="M3.41060513e-13,189 C28.799,189 28.799,205 57.597,205 C86.397,205 86.397,189 115.197,189 C143.996,189 143.996,205 172.795,205 C201.594,205 201.594,189 230.394,189 C259.193,189 259.193,205 287.992,205 C316.791,205 316.791,189 345.59,189 C374.39,189 374.39,205 403.189,205 C431.988,205 431.988,189 460.788,189 C489.587,189 489.587,205 518.387,205 C547.187,205 547.187,189 575.988,189 C604.785,189 604.785,205 633.583,205 C662.382,205 662.382,189 691.181,189 C719.979,189 719.979,205 748.777,205 C777.575,205 777.575,189 806.374,189 C835.173,189 835.173,205 863.972,205 C892.773,205 892.773,189 921.574,189 C950.375,189 950.375,205 979.177,205 C1007.977,205 1007.977,189 1036.778,189 C1065.579,189 1065.579,205 1094.381,205 C1123.182,205 1123.182,189 1151.983,189 C1180.783,189 1180.783,205 1209.584,205 C1238.385,205 1238.385,189 1267.186,189 C1295.989,189 1295.989,205 1324.79,205 C1353.594,205 1353.594,189 1382.396,189 C1411.2,189 1411.2,205 1440.003,205"></path>
                        <path d="M3.41060513e-13,216 C28.799,216 28.799,232 57.597,232 C86.397,232 86.397,216 115.197,216 C143.996,216 143.996,232 172.795,232 C201.594,232 201.594,216 230.394,216 C259.193,216 259.193,232 287.992,232 C316.791,232 316.791,216 345.59,216 C374.39,216 374.39,232 403.189,232 C431.988,232 431.988,216 460.788,216 C489.587,216 489.587,232 518.387,232 C547.187,232 547.187,216 575.988,216 C604.785,216 604.785,232 633.583,232 C662.382,232 662.382,216 691.181,216 C719.979,216 719.979,232 748.777,232 C777.575,232 777.575,216 806.374,216 C835.173,216 835.173,232 863.972,232 C892.773,232 892.773,216 921.574,216 C950.375,216 950.375,232 979.177,232 C1007.977,232 1007.977,216 1036.778,216 C1065.579,216 1065.579,232 1094.381,232 C1123.182,232 1123.182,216 1151.983,216 C1180.783,216 1180.783,232 1209.584,232 C1238.385,232 1238.385,216 1267.186,216 C1295.989,216 1295.989,232 1324.79,232 C1353.594,232 1353.594,216 1382.396,216 C1411.2,216 1411.2,232 1440.003,232"></path>
                    </g>
                </g>
            </g>
        </g>
    </g>
</svg>
